X:225
T: ZEUCH FAHLE ZEUCH, MORGEN WOLL'N WIR HABER SAEEN
N: Z0224
O: Europa, Mitteleuropa, Deutschland
R: Soldaten - Lied, dreissigjaehriger Krieg
M: 4/4
L: 1/4
K: F
 | zcAB | c4 |
AcBA | GGF2 |
AcBA | GGF2 |
A2GG | F2z2

@@@ Tune index: 9983
